tools/download-figma-icons/icons/outlined-large/worldwide.svg

<svg width="64" height="64" viewBox="0 0 64 64" fill="none" xmlns="http://www.w3.org/2000/svg">
<path fill-rule="evenodd" clip-rule="evenodd" d="M38.7129 60.2069C41.0079 57.3989 42.8979 53.1669 44.1779 47.9999H56.1709C52.1639 54.0329 45.9619 58.4809 38.7129 60.2069ZM7.82899 47.9999H19.822C21.103 53.1669 22.992 57.3989 25.287 60.2069C18.038 58.4809 11.836 54.0329 7.82899 47.9999ZM25.287 3.79299C22.992 6.60099 21.103 10.833 19.822 16H7.82899C11.836 9.96698 18.038 5.51899 25.287 3.79299ZM56.1709 16H44.1779C42.8979 10.833 41.0079 6.60099 38.7129 3.79299C45.9619 5.51899 52.1639 9.96698 56.1709 16ZM45.9839 30.4999C45.9049 26.3999 45.5019 22.527 44.8329 19H57.9109C59.6699 22.492 60.7509 26.3819 60.9609 30.4999H45.9839ZM45.9839 33.4999H60.9609C60.7509 37.6179 59.6699 41.5079 57.9109 44.9999H44.8329C45.5019 41.4729 45.9049 37.5999 45.9839 33.4999ZM18.016 30.4999H3.03899C3.24899 26.3819 4.32999 22.492 6.08899 19H19.167C18.498 22.527 18.095 26.3999 18.016 30.4999ZM41.7139 19C42.4479 22.659 42.8889 26.6159 42.9809 30.4999H21.02C21.111 26.6159 21.552 22.659 22.286 19H41.7139ZM31.9999 2.99999C35.9119 2.99999 39.1079 8.56998 41.0259 16H22.974C24.893 8.56998 28.0879 2.99999 31.9999 2.99999ZM3.03899 33.4999H18.016C18.095 37.5999 18.498 41.4729 19.167 44.9999H6.08899C4.32999 41.5079 3.24899 37.6179 3.03899 33.4999ZM22.286 44.9999C21.552 41.3409 21.111 37.3839 21.02 33.4999H42.9809C42.8889 37.3839 42.4479 41.3409 41.7139 44.9999H22.286ZM31.9999 60.9999C28.0879 60.9999 24.893 55.4299 22.974 47.9999H41.0259C39.1079 55.4299 35.9119 60.9999 31.9999 60.9999ZM31.9999 0C14.356 0 0 14.355 0 31.9999C0 49.6439 14.356 63.9999 31.9999 63.9999C49.6449 63.9999 63.9999 49.6439 63.9999 31.9999C63.9999 14.355 49.6449 0 31.9999 0Z" fill="black"/>
</svg>

<svg xmlns="http://www.w3.org/2000/svg" width="64" height="64" fill="none" viewBox="0 0 64 64"><path fill="currentColor" fill-rule="evenodd" d="M38.713 60.207c2.295-2.808 4.185-7.04 5.465-12.207H56.17c-4.007 6.033-10.21 10.48-17.458 12.207M7.829 48h11.993c1.281 5.167 3.17 9.399 5.465 12.207C18.038 58.48 11.836 54.033 7.829 48M25.287 3.793c-2.295 2.808-4.184 7.04-5.465 12.207H7.829C11.836 9.967 18.038 5.519 25.287 3.793M56.171 16H44.178c-1.28-5.167-3.17-9.399-5.465-12.207C45.962 5.519 52.163 9.967 56.17 16M45.984 30.5c-.08-4.1-.482-7.973-1.151-11.5H57.91a28.8 28.8 0 0 1 3.05 11.5zm0 3H60.96A28.8 28.8 0 0 1 57.91 45H44.833c.669-3.527 1.072-7.4 1.15-11.5m-27.968-3H3.039A28.8 28.8 0 0 1 6.089 19h13.078c-.669 3.527-1.072 7.4-1.151 11.5M41.714 19a67.4 67.4 0 0 1 1.267 11.5H21.02A67.3 67.3 0 0 1 22.286 19zM32 3c3.912 0 7.108 5.57 9.026 13H22.974C24.893 8.57 28.088 3 32 3M3.039 33.5h14.977c.079 4.1.482 7.973 1.151 11.5H6.089a28.8 28.8 0 0 1-3.05-11.5M22.286 45a67.3 67.3 0 0 1-1.266-11.5h21.96A67.4 67.4 0 0 1 41.715 45zM32 61c-3.912 0-7.107-5.57-9.026-13h18.052C39.108 55.43 35.912 61 32 61m0-61C14.356 0 0 14.355 0 32c0 17.644 14.356 32 32 32 17.645 0 32-14.356 32-32C64 14.355 49.645 0 32 0" clip-rule="evenodd"/></svg>
